X: 38465
T: Steak And Ale
R: mazurka
M: 3/4
K: Dmajor
|:A2|F>E D2 A2|F>E D2 A2|A2 d2 c2|A2- A2 (3ABc|
d2 A2 F2|G2 A2 B2|(3ABA d2 c2|d2- d2:|
|:d2|c>B A2 d2|c>B A2 d2|c>B A2 G2|E2- E2 (3ABc|
d2- d>A F2|G2- G>A B2|.A2 .d2 .c2|d2- d2:|

